src/images/common/password_show.svg

<svg width="16" height="16" viewBox="0 0 16 16" fill="none" xmlns="http://www.w3.org/2000/svg">
<path d="M8.00008 4C10.5783 4 12.8776 5.54909 14.0001 8C12.8776 10.4509 10.5851 12 8.00008 12C5.41505 12 3.12253 10.4509 2.00008 8C3.12253 5.54909 5.42185 4 8.00008 4ZM8.00008 3C4.66675 3 1.82008 5.07333 0.666748 8C1.82008 10.9267 4.66675 13 8.00008 13C11.3334 13 14.1801 10.9267 15.3334 8C14.1801 5.07333 11.3334 3 8.00008 3ZM8.00008 6C9.10408 6 10.0001 6.896 10.0001 8C10.0001 9.104 9.10408 10 8.00008 10C6.89608 10 6.00008 9.104 6.00008 8C6.00008 6.896 6.89608 6 8.00008 6ZM8.00008 5C6.34675 5 5.00008 6.34667 5.00008 8C5.00008 9.65333 6.34675 11 8.00008 11C9.65341 11 11.0001 9.65333 11.0001 8C11.0001 6.34667 9.65341 5 8.00008 5Z" fill="#333333"/>
</svg>

<svg width="16" height="16" fill="none" xmlns="http://www.w3.org/2000/svg"><path d="M8 4c2.578 0 4.878 1.55 6 4-1.122 2.45-3.415 4-6 4s-4.877-1.55-6-4c1.123-2.45 3.422-4 6-4zm0-1C4.667 3 1.82 5.073.667 8c1.153 2.927 4 5 7.333 5s6.18-2.073 7.333-5c-1.153-2.927-4-5-7.333-5zm0 3A2 2 0 1 1 8 10.001 2 2 0 0 1 8 6zm0-1C6.347 5 5 6.347 5 8s1.347 3 3 3 3-1.347 3-3-1.347-3-3-3z" fill="#333"/></svg>
